X:783
T:In Praise of Uist
C:Joe Buchanan's Scottish Tome - Page 535.2
I:535 2
Z:Carl Allison
R:Slow Air
L:1/4
M:3/4
K:A
E | A2 (B/A/) | c2 E | (F<A) F | E2 E | A2 A/A/ | c2 (B/A/) | c2 (B/B/) | B2 (c/d/) |
e2 (f/e/) | c2 E | (F<A) F | E2 (c/d/) | e2 E | (c2 B) | A2 A | A2 :|

